X:1
T:Clairières dans le ciel
T:Deux ancolies
T:à mes chers MARTHE et RICHARD BOUWENS van der BOIJEN
T:Clairières dans le ciel
T:Lili Boulanger
T:10. Deux ancolies 
T:Francis Jammes
T:Creative Commons copyright waiver (CC0 1.0 Universal)
T:Creative Commons copyright waiver (CC0 1.0 Universal)
T:Creative Commons copyright waiver (CC0 1.0 Universal)
C:Lili Boulanger
Z:Francis Jammes
Z:Creative Commons copyright waiver (CC0 1.0 Universal)
L:1/8
Q:1/4=60
M:2/2
K:C
V:1 treble nm="Chant\nVoice"
V:1
"^Assez vite, souplement" z8 | z8 |!pp! z"^à mi-voix, très fin" G G G _B3 B | %3
w: ||Deux an- co- li- es|
 z G G G"^sans augmenter" c c d d |!>(! g6!>)! e2 | (3d2 f2 e2 d3- d | %6
w: se ba- lan- çaient sur la- col-|li- ne|Et l'an- co- li- e|
 (d d f"^avec charme" e (3d2!>(! !tenuto!f2 e2!>)! |!>(! g6-!>)! g2) | %8
w: di- sait à sa sœur l'an- co-|li- e:|
 z2"^naïvement" B2 !tenuto!^c c c c | !tenuto!B2!<(! B B ^c2!<)! c !tenuto!c | %10
w: Je trem- ble de- vant|toi et de- meu- re con-|
!>(! !tenuto!e6!>)! !breath!^c2 |!pp! z2"^effacé, comme au début" G2 !tenuto!_B B B B | %12
w: fu- se.|Et l'au- tre ré- pon-|
 !tenuto!G8 | z2"^expressif" (_A2!<(! _B3 =B!<)! | e4- e e d d | f2!<(! g f!<)! _a4- | %16
w: \- dait:|Si dans la|ro- * che qu'u- se|l'eau, gout- te‿à gout-|
!>(! a4!>)! _a2) z2 |"^avec abandon" z2 (_d2!<(! f3!<)! f |!>(! _e6!>)! _d2) | %19
w: * te,|Si je me|mi- re,|
 z2 (_d2!<(! =G2 _A A!<)! |!>(! _e6!>)! =d2) | z2 (_e2-!<(!"^animez  un  peu" e =B c c!<)! | %22
w: je vois que je|trem- ble,|et _ je suis con-|
"^(animez)" e4- e =d)"^à l'aise" (!tenuto!f f ||[M:3/4]!p!"^Vite" !>!=a6-) | a4- a z | %25
w: fu- * se com- me|toi|_ _|
 !fermata!z6 ||[M:2/2]"^Reprenez comme au commencement" z2!pp! G2 !tenuto!_B B B B | %27
w: |Le vent de plus en|
 G2 G G c2 d d | f8- | f z!mf!"^expressif" (_A2 _B2 =B2 |!<(! e6!<)! d2 |!f! _a8-) | _a8- | %33
w: plus les ber- çait tou- tes|deux,|_ les em- plis-|sait d'a-|mour|_|
 !breath!a4"^adouci""^sans hâte" (!tenuto!g2 !tenuto!f2 |"^molto rit." (e2 _e2) d2 B2 | %35
w: * et mê-|lait _ leur cœur|
"^Tempo I" G8-) | G4 z4 | z8 | z8 | z8 |] %40
w: bleu|_||||

